!!!!SEGMENT: pl-kc--40102-iii-1-saf--001-045_zielenski-mikolaj--offertoria-totius-anni-mottetto-de-s-ignatio-igneum-ignatii-iubar.krn
!!!cenid: 16xx:1524
!!!COM: Zieleński, Mikołaj
!!!COM-rismid: pe30013481
!!!CDT:
!!!CNT: Polish
!!!OTL: Offertoria totius anni
!!!OMV: 045
!!!PDT: 1611
!!!AGN:
!!!SMS-siglum: PL-Kc
!!!SMS-shelfmark: 40102 III/1 Saf.
!!!SMS-shelfwork: 001-045 W
!!!SMS-variant:
!!!SMS-altvar:
!!!NIFC-rismid: 990069886
!!!URL-scan: https://cyfrowe.mnk.pl/dlibra/publication/24235/edition/23926/content?ref=desc
!!!ONB-nifc: UWAGA: str. 39-40 (razem z Secunda pars). Uwaga: W xml metrum 2/1 do źródłowego C| i odpowiednio 3/1 do 3/2
**kern	**kern	**kern	**kern
*group1	*group1	*group1	*group1
*part4	*part3	*part2	*part1
*staff4	*staff3	*staff2	*staff1
*I""Organo	*I""Organo	*I""Organo	*I""Organo
*I''org	*I''org	*I''org	*I''org
*Iorg	*Iorg	*Iorg	*Iorg
*ICklav	*ICklav	*ICklav	*ICklav
*clefF4	*clefC3	*clefC4	*clefG2
*k[]	*k[]	*k[]	*k[]
*C:	*C:	*C:	*C:
*M2/1	*M2/1	*M2/1	*M2/1
*met(C|)	*met(C|)	*met(C|)	*met(C|)
=1	=1	=1	=1
!	!	!LO:TX:a:t=Igneum Ignati iubar.	!LO:TX:a:t=Mottetto de S. Ignatio. A 8.
00r	00r	2.G/	2.dd\
.	.	4G/	4dd\
.	.	2C/	2ee\
.	.	2F/	2cc\
=2-	=2-	=2-	=2-
.	.	2F/	2dd\
.	.	2E/	2ee\
.	.	1D	1ff
=3	=3	=3	=3
2.C/	2.g\	1C	1ee
4C/	4g\	.	.
2FF/	2a\	1r	1r
2C/	2e\	.	.
=4-	=4-	=4-	=4-
2AA/	2f\	0r	0r
2GG/	2.g\	.	.
1D	.	.	.
.	8f#X\	.	.
.	8e\	.	.
.	2f#\	.	.
=5	=5	=5	=5
1GG	1g	1r	1r
!LO:N:vis=2	!	!	!
2.DD/	2.a\	2.D/	2.dd\
4DD/	4a\	4D/	4dd\
=6-	=6-	=6-	=6-
2.AA/	2a\	2E/	2cc\
.	2a\	2E/	2ee\
4BB/	.	.	.
2C/	2g\	2E/	2ee\
2FF/	2a\	2C/	4ff\
.	.	.	[<4ff\
=7	=7	=7	=7
1C	1g	1C	4ff\]
.	.	.	8ee\
.	.	.	8dd\
.	.	.	2ee\
2FF/	2a\	2C/	2ff\
2r	2r	4c\	4ee\
.	.	4A/	4ee\
=8-	=8-	=8-	=8-
2r	2r	2d\	2dd\
4AA/	4a\	2A/	2cc#X\
4AA/	4a\	.	.
2BB/	2f\	2r	2r
2AA/	2e\	4A/	4ee\
.	.	4A/	4ee\
=9	=9	=9	=9
00r	00r	2D/	2ff\
.	.	2G/	4dd\
.	.	.	2gg\
.	.	4E/	.
.	.	2E/	2ee\
.	.	4C/	4ee\
=10-	=10-	=10-	=10-
.	.	4F/	4ff\
.	.	4C/	4ee\
.	.	2D/	2dd\
.	.	4A/	4cc\
.	.	2E/	2ee\
.	.	4F/	8dd\
.	.	.	8cc\
*custos:AA	*custos:e	*custos:G	*custos:b
!!LO:LB:g=original
=11	=11	=11	=11
1r	1r	4G/	4b/
.	.	4D/	2dd\
.	.	2A/	.
.	.	.	4cc#X\
2r	2r	2D/	2dd\
4AA/	4e\	4C/	4ee\
4AA/	4e\	4C/	4ee\
=12-	=12-	=12-	=12-
2EE/	2e\	2E/	2ee\
2AA/	2e\	2E/	2cc#X\
4FF/	4a\	1r	1r
4FF/	4a\	.	.
2FF/	2a\	.	.
=13	=13	=13	=13
4C/	4g\	00r	00r
2GG/	2g\	.	.
2D/	2f#X\	.	.
4BB/	4g\	.	.
4C/	4e\	.	.
4AA/	[4a\	.	.
=14-	=14-	=14-	=14-
1E	4a\]	.	.
.	8g#X\	.	.
!	!LO:SIC:v:s=8f#\	!	!
.	8fny\	.	.
.	2g#\	.	.
4AA/	4a\	.	.
2C/	2e\	.	.
4GG/	4gny\	.	.
=15	=15	=15	=15
1D	4g\	1r	1r
.	8f#X\	.	.
.	8e\	.	.
.	2f#\	.	.
1GG	1g	2r	2r
.	.	1G	1dd
=16-	=16-	=16-	=16-
0r	0r	.	.
.	.	2G/	2dd\
.	.	2c\	2ee\
.	.	2A/	2ee\
=17	=17	=17	=17
00r	00r	1d	1ff
.	.	1c	2ee\
.	.	.	1gg
=18-	=18-	=18-	=18-
.	.	2.G/	.
.	.	.	1dd
.	.	4A/	.
.	.	4B\	.
.	.	4c\	.
.	.	[<2d\	[y2ff\
=19	=19	=19	=19
!	!	!	!LO:N:xstem:cue
00r	00r	2d\]	4ff\]
.	.	.	4ee\
.	.	2B-X\	2dd\
.	.	2.A/	2cc\
.	.	.	2.ee\
.	.	4Bny\	.
=20-	=20-	=20-	=20-
.	.	2c\	.
.	.	.	4dd\
.	.	2C/	2.cc\
.	.	1G	.
.	.	.	8b/
.	.	.	8a/
.	.	.	2b/
=21	=21	=21	=21
2r	2r	1C	1cc
1C	1g	.	.
.	.	1r	1r
2C/	2g\	.	.
=22-	=22-	=22-	=22-
2F\	2a\	0r	0r
2D/	2a\	.	.
2.E\	2.g\	.	.
4F\	8f\	.	.
.	8e\	.	.
=23	=23	=23	=23
2G\	4d\	00r	00r
.	4e\	.	.
1D	4f\	.	.
.	4g\	.	.
.	2a\	.	.
2AA/	2.a\	.	.
=24-	=24-	=24-	=24-
2C/	.	.	.
.	4e\	.	.
2BB/	4g\	.	.
.	4g\	.	.
1AA	1a	.	.
=25	=25	=25	=25
2GG/	2.d\	0r	0r
2D/	.	.	.
.	4d\	.	.
4C/	4e\	.	.
4GG/	4g\	.	.
2D/	2f#X\	.	.
=26-	=26-	=26-	=26-
1GG	1g	2r	2r
.	.	2G/	2b/
1r	1r	4F/	4cc\
.	.	4C/	4ee\
.	.	2G/	2dd\
=27	=27	=27	=27
2r	2r	1C	1ee
1CC	1g	.	.
.	.	2r	2r
2CC/	2g\	1c	1gg
=28-	=28-	=28-	=28-
2r	2r	.	.
1GG	1d	2G/	2gg\
.	.	2r	2r
2GG/	2d\	[<2G/	[<2dd\
=29	=29	=29	=29
2r	2r	2G/]	2dd\]
1DD	1d	2A/	2dd\
.	.	2A/	2ff\
2DD/	2d\	2A/	2ff\
=30-	=30-	=30-	=30-
2AA/	2r	4A/	1ee
.	.	4B\	.
2AA/	2c/	4c\	.
.	.	4d\	.
1C	2G/	2e\	2ee\
.	2G/	2e\	[<2gg\
=31	=31	=31	=31
2GG/	2B/	1.d	2gg\]
1DD	1d	.	1ff
2AA/	2A/	2c\	2ee\
=32-	=32-	=32-	=32-
*	*lig	*	*
4FF/	1a	1.c	2.ff\
4GG/	.	.	.
4AA/	.	.	.
4BB/	.	.	8ee\
.	.	.	8dd\
2.C/	1g	.	2ee\
.	.	2G/	[y2gg\
4BB/	.	.	.
*	*Xlig	*	*
=33	=33	=33	=33
!	!	!	!LO:N:xstem:cue
2AA/	1a	1C	4gg\]
.	.	.	8ff#X\
.	.	.	8ee\
2AA/	.	.	2ff#\
1GG	1d	1G	2.gg\
.	.	.	4ffny\
=34-	=34-	=34-	=34-
1CC	1e	2G/	2.ee\
.	.	2.c\	.
.	.	.	2ee\
1r	1r	.	.
.	.	4A/	4ee\
.	.	4.B\	4.dd\
!	!	!	!LO:N:vis=8
.	.	8c\	16cc\
!	!	!	!LO:N:vis=8
.	.	.	16b\
*custos:GG	*custos:d	*custos:d	*custos:a
!!LO:LB:g=original
=35	=35	=35	=35
1r	1r	4d\	4a/
.	.	4G/	4b/
.	.	2d\	2a/
4r	4r	2G/	2b/
2GG/	2d\	.	.
.	.	2r	2r
4D/	4f\	.	.
=36-	=36-	=36-	=36-
4.AA/	4e\	0r	0r
.	2a\	.	.
8BB/	.	.	.
4C/	.	.	.
4GG/	2g\	.	.
1D	.	.	.
.	8f#X\	.	.
.	8e\	.	.
.	2f#\	.	.
=37	=37	=37	=37
4GG/	2g\	0r	0r
4.G\	.	.	.
.	4r	.	.
8F\	.	.	.
4.E\	4.g\	.	.
8D/	8f\	.	.
4C/	4e\	.	.
2G\	2d\	.	.
=38-	=38-	=38-	=38-
1C	1e	2r	4r
.	.	.	4.gg\
.	.	4r	.
.	.	.	8ff\
.	.	4.c\	4.ee\
1r	1r	.	.
.	.	8B\	8dd\
.	.	4A/	4cc\
.	.	2e\	2b/
=39	=39	=39	=39
2r	2r	1.A	2cc#X\
2.D/	1f#X	.	2r
.	.	.	2r
4C/	.	.	.
2.BB/	2g\	1D	2.dd\
=40-	=40-	=40-	=40-
.	1d	.	.
4AA/	.	.	4ccny\
2GG/	.	1G	2b/
[<1AA	[<1A	.	[<1a
.	.	2F/	.
=41	=41	=41	=41
1AA]	1A]	1E	1a]
2DD/	2.A/	1D	1a
2D/	.	.	.
.	4d\	.	.
=42-	=42-	=42-	=42-
4BB/	4d\	2r	2r
8AA/	4g\	.	.
8GG/	.	.	.
2D/	2f#X\	4r	4r
.	.	4d\	4dd\
2r	2r	4B\	4dd\
.	.	8A/	4gg\
.	.	8G/	.
4r	4r	2d\	2ff#X\
4D/	4d\	.	.
=43	=43	=43	=43
4BB/	4d\	2r	2r
8AA/	4g\	.	.
8GG/	.	.	.
2D/	2f#X\	4r	4r
.	.	4d\	4dd\
1r	1r	4B\	4dd\
.	.	8A/	4gg\
.	.	8G/	.
.	.	4d\	4ff#X\
.	.	4B\	4gg\
=44-	=44-	=44-	=44-
2r	2r	4.c\	4.ee\
.	.	8c\	8ee\
4r	4r	4G/	4dd\
4GG/	4d\	4D/	4dd\
4BB/	[<1d	4.D/	4dd\
8AA/	.	.	8cc\
8GG/	.	8E/	8b\
4D/	.	4F#X/	4a/
4GG/	.	4r	4b/
=45	=45	=45	=45
2.BB/	1d]	2r	4b/
.	.	.	4a/
.	.	2G/	2.g/
8AA/	.	.	.
8GG/	.	.	.
2D/	1d	2A/	.
.	.	.	8f#X/
.	.	.	8e/
2DD/	.	2A/	2f#/
=46-	=46-	=46-	=46-
1.GG	1d	2.G/	2g/
.	.	.	2b/
.	.	4A/	.
.	2.B/	4B\	2.dd\
.	.	4c\	.
[<2GG/	.	[<2d\	.
.	4c/	.	4cc\
=47	=47	=47	=47
2GG/]	0d	2d\]	2b/
2D/	.	2A/	2a/
0.GG	.	2.d\	4b/
.	.	.	4g/
.	.	.	4b/
.	.	4c\	4cc\
=48-	=48-	=48-	=48-
.	1.g	4B\	2.dd\
.	.	4A/	.
.	.	1G	.
.	.	.	4cc\
.	.	.	2b/
.	2d\	2G/	2b/
=49-	=49-	=49-	=49-
0EEl	0dl	0Al	0al
=50||	=50||	=50||	=50||
*M3/2	*M3/2	*M3/2	*M3/2
*	*	*col	*col
!	!	!	!LO:TX:t=P:problem:oznaczenie menzuralne C| obok 3/2:global
00.r	00.r	2.G/	2.dd\
!	!	!LO:N:vis=8	!LO:N:vis=8
.	.	4G/	4dd\
.	.	2C/	2ee\
=51-	=51-	=51-	=51-
.	.	1G	1dd
.	.	2D/	2dd\
=52-	=52-	=52-	=52-
.	.	2.F/	2.cc\
!	!	!LO:N:vis=8	!LO:N:vis=8
.	.	4E/	4cc\
.	.	2F/	2cc\
=53-	=53-	=53-	=53-
.	.	2G/	2b/
.	.	1E	2b/
.	.	.	2cc#X\
=54	=54	=54	=54
*col	*col	*	*
2.D/	2.f#X\	1.D	1.dd
!LO:N:vis=8	!LO:N:vis=8	!	!
4D/	4f#\	.	.
2GG/	2g\	.	.
*	*	*Xcol	*Xcol
=55-	=55-	=55-	=55-
1D	1f#X	1.r	1.r
2AA/	2a\	.	.
=56-	=56-	=56-	=56-
2.C/	2.e\	0.r	0.r
!LO:N:vis=8	!LO:N:vis=8	!	!
4BB/	4d\	.	.
2C/	2e\	.	.
=57-	=57-	=57-	=57-
2GG/	2g\	.	.
1D	1f#X	.	.
*custos:GG	*custos:g	*custos:G	*custos:gg
!!LO:PB:g=original
=58	=58	=58	=58
1.GG	1.g	1.r	1.r
=59-	=59-	=59-	=59-
*	*	*col	*col
2.GG/	2.g\	2.G/	2.gg\
!LO:N:vis=8	!LO:N:vis=8	!LO:N:vis=8	!LO:N:vis=8
4GG/	4g\	4G/	4gg\
2CC/	2g\	2G/	2ee\
=60-	=60-	=60-	=60-
!LO:SIC:v:s=1FF	!	!	!
1GG	1a	1F	1ff
!LO:SIC:v:s=2FF/	!	!	!
2GG/	2a\	2F/	2cc\
=61-	=61-	=61-	=61-
2.CC/	2.g\	2.G/	2.ee\
!LO:N:vis=8	!LO:N:vis=8	!LO:N:vis=8	!LO:N:vis=8
4CC/	4g\	4G/	4ee\
2GG/	2g\	2G/	2dd\
=62	=62	=62	=62
2DD/	2f\	2A/	2dd\
1AA	1e	1A	1cc#X
=63-	=63-	=63-	=63-
1DD	1f#X	1A	1dd
2D/	2f#\	2A/	2dd\
=64-	=64-	=64-	=64-
2.AA/	1a	1A	1ee
!LO:N:vis=8	!	!	!
4BB/	.	.	.
2C/	2g\	2E/	2ee\
=65-	=65-	=65-	=65-
2GG/	1g	2G/	2dd\
1DD	.	1A	1dd
.	2f#X\	.	.
*Xcol	*Xcol	*Xcol	*Xcol
=66	=66	=66	=66
*M2/1	*M2/1	*M2/1	*M2/1
*met(C|)	*met(C|)	*met(C|)	*met(C|)
1GG	1g	2G/	2dd\
.	.	1G	1dd
1r	1r	.	.
.	.	2G/	2dd\
=67-	=67-	=67-	=67-
0r	0r	2E/	2gg\
.	.	2F/	2ff\
.	.	4C/	2.ee\
.	.	4D/	.
.	.	4E/	.
.	.	4F/	8dd\
.	.	.	8cc\
=68	=68	=68	=68
00r	00r	2.G/	4b/
.	.	.	4a/
.	.	.	4b/
.	.	8F/	4cc\
.	.	8E/	.
.	.	2D/	2dd\
.	.	2F/	2a/
=69-	=69-	=69-	=69-
.	.	2.E/	1ee
.	.	4F/	.
.	.	2.G/	2dd\
.	.	.	[y2gg\
.	.	4A/	.
=70	=70	=70	=70
!	!	!	!LO:N:xstem:cue
0r	0r	2B\	4gg\]
.	.	.	4ff\
.	.	2c\	2.ee\
.	.	2d\	.
.	.	.	4dd\
.	.	2B-X\	2.dd\
=71-	=71-	=71-	=71-
1r	1r	1A	.
.	.	.	8cc#X\
.	.	.	8b\
.	.	.	2cc#\
[y1D	[y1f	1D	1dd
=72	=72	=72	=72
!LO:N:xstem:cue:vis=4	!LO:N:xstem:cue:vis=4	!	!
2D\]	2f\]	00r	00r
2D/	2f#X\	.	.
2BB/	2g\	.	.
2C/	2e\	.	.
=73-	=73-	=73-	=73-
4GG/	2.d\	.	.
4AA/	.	.	.
4BB/	.	.	.
4C/	8c/	.	.
.	8B/	.	.
2.D/	4A/	.	.
.	4G/	.	.
.	4A/	.	.
8C/	4B/	.	.
8BB/	.	.	.
=74	=74	=74	=74
2AA/	4c#X/	00r	00r
.	4d\	.	.
2C#X/	2e\	.	.
2.D/	2A/	.	.
.	2.a\	.	.
4Cny/	.	.	.
=75-	=75-	=75-	=75-
1BB-X	.	.	.
.	8g\	.	.
.	8f\	.	.
.	2g\	.	.
2AA/	2.a\	.	.
[>2C/	.	.	.
.	8g\	.	.
.	8f\	.	.
=76	=76	=76	=76
2C/]	2e\	0r	0r
2GG/	1g	.	.
0AA	.	.	.
.	2f\	.	.
=77-	=77-	=77-	=77-
.	1e	1r	1r
1D	1d	2r	2r
.	.	[y2D/	[y2dd\
=78	=78	=78	=78
!	!LO:TX:t=P:problem:brak pauzy 2r	!LO:N:xstem:cue	!LO:N:xstem:cue
2r	2ryy	4D/]	4dd\]
.	.	4D/	4dd\
2.DD/	2.f#X\	2D/	2dd\
.	.	2r	2r
4DD/	4f#\	.	.
2DD/	2f#\	2.D/	2.dd\
=79-	=79-	=79-	=79-
2r	2r	.	.
.	.	4D/	4dd\
2.GG/	2.g\	2G/	2dd\
.	.	2r	2r
4GG/	4g\	.	.
2GG/	2g\	[y2G/	[y2gg\
=80	=80	=80	=80
!	!	!LO:N:xstem:cue	!LO:N:xstem:cue
2r	2r	4G/]	4gg\]
.	.	4G/	4gg\
2.CC/	2.g\	2G/	2gg\
*	*	*	*lig
.	.	0C	1ee
4CC/	4g\	.	.
2CC/	2g\	.	.
=81-	=81-	=81-	=81-
1FF	1a	.	1ff
*	*	*	*Xlig
1CC	1g	2C/	2ee\
.	.	[y2c\	[y2gg\
=82	=82	=82	=82
!	!	!LO:N:xstem:cue	!LO:N:xstem:cue
00r	00r	4c\]	4gg\]
.	.	4c\	4gg\
.	.	4F/	4ff\
.	.	4F/	4ff\
*	*	*	*lig
.	.	4c\	1ee
.	.	4C/	.
.	.	4E/	.
.	.	4F/	.
=83-	=83-	=83-	=83-
.	.	1G	1dd
*	*	*	*Xlig
.	.	2C/	[y1ee
.	.	[y2c\	.
*custos:D	*custos:d	*custos:B	*custos:ee
!!LO:LB:g=original
=84	=84	=84	=84
!	!	!LO:N:xstem:cue	!LO:N:xstem:cue:vis=4
00r	00r	4c\]	2ee\]
.	.	4B\	.
.	.	2A/	2.ee\
.	.	2.E/	.
.	.	.	4dd\
.	.	.	2cc\
.	.	4F/	.
=85-	=85-	=85-	=85-
*	*	*lig	*lig
.	.	1G	1b
.	.	1D	1a
*	*	*Xlig	*Xlig
=86	=86	=86	=86
1r	1r	1G	1b
=87-	=87-	=87-	=87-
*M3/2	*M3/2	*M3/2	*M3/2
*col	*col	*	*
2.D/	2.d\	0.r	0.r
!LO:N:vis=8	!LO:N:vis=8	!	!
4D/	4d\	.	.
2GG/	2c/	.	.
=88-	=88-	=88-	=88-
1D	1B	.	.
2AA/	2A/	.	.
*Xcol	*Xcol	*	*
=89-	=89-	=89-	=89-
*	*	*col	*col
1.r	1.r	2.G/	2.dd\
!	!	!LO:N:vis=8	!LO:N:vis=8
.	.	4G/	4dd\
.	.	2C/	2cc\
=90	=90	=90	=90
1.r	1.r	1G	1b
.	.	2D/	2a/
*	*	*Xcol	*Xcol
=91-	=91-	=91-	=91-
*col	*col	*	*
2.AA/	2.a\	1.r	1.r
!LO:N:vis=8	!LO:N:vis=8	!	!
4AA/	4a\	.	.
2E\	2g#X\	.	.
=92-	=92-	=92-	=92-
1AA	1a	0.r	0.r
2D/	2f#X\	.	.
=93-	=93-	=93-	=93-
2.BB/	2.gny\	.	.
!LO:N:vis=8	!LO:N:vis=8	!	!
4BB/	4g\	.	.
2C/	2g\	.	.
=94	=94	=94	=94
2D/	2f\	0.r	0.r
1AA	1e	.	.
=95-	=95-	=95-	=95-
1.D	1.f	.	.
*Xcol	*Xcol	*	*
=96-	=96-	=96-	=96-
*	*	*col	*col
0.r	0.r	2.G/	2.dd\
!	!	!LO:N:vis=8	!LO:N:vis=8
.	.	4G/	4dd\
.	.	2E/	2gg\
=97-	=97-	=97-	=97-
.	.	1F	1ff
.	.	2C/	2ee\
=98	=98	=98	=98
00.r	00.r	2.G/	2.dd\
!	!	!LO:N:vis=8	!LO:N:vis=8
.	.	4G/	4dd\
.	.	2G/	2dd\
=99-	=99-	=99-	=99-
.	.	2E/	2ee\
.	.	1D	1ff
=100-	=100-	=100-	=100-
.	.	1.C	1.ee
=101-	=101-	=101-	=101-
.	.	2.E/	2.gg\
!	!	!LO:N:vis=8	!LO:N:vis=8
.	.	4D/	4ff\
.	.	2C/	2ee\
=102	=102	=102	=102
0.r	0.r	1G	1dd
.	.	2C/	2ee\
=103-	=103-	=103-	=103-
.	.	2.E/	2.gg\
!	!	!LO:N:vis=8	!LO:N:vis=8
.	.	4D/	4ff\
.	.	2C/	2ee\
=104-	=104-	=104-	=104-
1.r	1.r	1.G	1.dd
*	*	*Xcol	*Xcol
=105-	=105-	=105-	=105-
*M2/1	*M2/1	*M2/1	*M2/1
*met(C|)	*met(C|)	*met(C|)	*met(C|)
2r	2r	1C	1ee
[y2C/	[y2e\	.	.
=106	=106	=106	=106
!LO:N:xstem:cue	!LO:N:xstem:cue	!	!
4C/]	4e\]	2r	2r
4BB/	4d\	.	.
2AA/	2c/	2.c\	2.ee\
2r	2r	.	.
.	.	4B\	4dd\
2.AA/	2.c/	2A/	2cc\
=107-	=107-	=107-	=107-
.	.	2r	2r
4GG/	4B/	.	.
1FF	2A/	2.A/	2.cc\
.	2A/	.	.
.	.	4A/	4cc\
2GG/	2B/	2G/	2b/
=108	=108	=108	=108
0DD	2d\	2F#X/	2a/
.	2.d\	2G/	2.g/
.	.	1A	.
.	4A/	.	8f#X/
.	.	.	8e/
.	2d\	.	2f#/
=109-	=109-	=109-	=109-
1GG	1d	2.G/	2g/
.	.	.	2b/
.	.	4G/	.
2r	2r	4E/	4b/
.	.	8D/	4ee\
.	.	8C/	.
4r	4r	2G/	2dd\
4G\	4d\	.	.
=110	=110	=110	=110
4E\	4e\	2r	2r
8D/	4e\	.	.
8C/	.	.	.
2G\	2d\	4r	4r
.	.	4G/	4b/
2r	2r	4E/	4b/
.	.	8D/	4ee\
.	.	8C/	.
4r	4r	2G/	2dd\
4G\	4d\	.	.
=111-	=111-	=111-	=111-
4E\	4e\	2r	2r
8D/	4e\	.	.
8C/	.	.	.
2G\	2d\	4r	4r
.	.	4G/	4dd\
1r	1r	4c\	4ee\
.	.	8B\	4ee\
.	.	8A\	.
.	.	4B\	4cc\
.	.	4G/	4ee\
=112	=112	=112	=112
0r	0r	4A/	4cc\
.	.	4F#X/	4dd\
.	.	4G/	4b/
.	.	4E/	4gg\
.	.	4F#/	4aa\
.	.	4F#/	8gg\
.	.	.	8ff\
.	.	4E/	4gg\
.	.	4E/	4ee\
=113-	=113-	=113-	=113-
2r	2r	4D/	4ff\
.	.	4D/	4ff\
4r	4r	2C/	2ee\
4C/	4e\	.	.
4AA/	4e\	1r	1r
8GG/	4a\	.	.
8FF/	.	.	.
4C/	4g\	.	.
4AA/	4a\	.	.
=114	=114	=114	=114
4BB/	4d\	2r	2r
4GG/	4g\	.	.
2D/	2f#X\	4r	4r
.	.	4d\	4dd\
2r	2r	4B\	4dd\
.	.	8A/	4gg\
.	.	8G/	.
4r	4r	2d\	2ff#X\
4D/	4d\	.	.
=115-	=115-	=115-	=115-
4BB/	4d\	2r	2r
8AA/	4g\	.	.
8GG/	.	.	.
2D/	2f#X\	4r	4r
.	.	4d\	4dd\
*custos:D	*custos:d	*custos:B	*custos:dd
!!LO:LB:g=original
2r	2r	4B\	4dd\
.	.	8A/	4gg\
.	.	8G/	.
4r	4r	2d\	2ff#X\
4D/	4d\	.	.
=116	=116	=116	=116
4BB/	4d\	2r	2r
8AA/	4g\	.	.
8GG/	.	.	.
2D/	4f#X\	4r	4r
.	4a\	2d\	2cc\
2GG/	1g	.	.
.	.	4d\	2gg\
2CC/	.	2c\	.
.	.	.	4ee-X\
=117-	=117-	=117-	=117-
1FF	1fny	1.c	2ff\
.	.	.	2cc\
2CC/	1e	.	2eeny\
2CC/	.	2c\	2ee\
=118	=118	=118	=118
1GG	1r	2G/	2dd\
.	.	2G/	1dd
1DD	1d	2A/	.
.	.	2B\	4cc\
.	.	.	4b/
=119-	=119-	=119-	=119-
1DD	2d\	2d\	2a/
.	2d\	2d\	2a/
1GG	1d	2B\	2b/
.	.	2B\	2dd\
=120	=120	=120	=120
1.CC	2e\	1c	2.gg\
.	4c/	.	.
.	4d\	.	4ff\
.	4e\	1G	2ee\
.	4f\	.	.
2GG/	2g\	.	2dd\
=121-	=121-	=121-	=121-
00DD	2.e\	2G/	4cc\
.	.	.	4dd\
.	.	2.C/	4ee\
.	4d\	.	4ff\
.	2c/	.	2.gg\
.	.	4D/	.
.	2G/	4E/	.
.	.	4D/	4ff\
=122-	=122-	=122-	=122-
.	4g\	4E/	2ee\
.	4f\	4F/	.
.	4e\	2G/	2cc\
.	4d\	.	.
.	2c/	1G	1ee
.	2g\	.	.
=123-	=123-	=123-	=123-
0GGl	2g\	0Gl	0ddl
.	2d\	.	.
.	1dl	.	.
==	==	==	==
*-	*-	*-	*-
!!!system-decoration: *
!!!RDF**kern: > = above
!!!RDF**kern: < = below
!!!RDF**kern: l = terminal long
!!!ENC: Filip Voros
!!!END: 2021-12-17
!!!ENC: Andrzej Kubiczek
!!!END: 2021-12-22
